resources/svg/close-circle-fill.svg

<svg fill="currentColor" viewBox="0 0 24 24" xmlns="http://www.w3.org/2000/svg"><path d="M12 22C6.47715 22 2 17.5228 2 12C2 6.47715 6.47715 2 12 2C17.5228 2 22 6.47715 22 12C22 17.5228 17.5228 22 12 22ZM12 10.5858L9.17157 7.75736L7.75736 9.17157L10.5858 12L7.75736 14.8284L9.17157 16.2426L12 13.4142L14.8284 16.2426L16.2426 14.8284L13.4142 12L16.2426 9.17157L14.8284 7.75736L12 10.5858Z"/></svg>

<svg xmlns="http://www.w3.org/2000/svg" viewBox="0 0 24 24" fill="currentColor">
    <g>
        <path fill="none" d="M0 0h24v24H0z"/>
        <path d="M12 22C6.477 22 2 17.523 2 12S6.477 2 12 2s10 4.477 10 10-4.477 10-10 10zm0-11.414L9.172 7.757 7.757 9.172 10.586 12l-2.829 2.828 1.415 1.415L12 13.414l2.828 2.829 1.415-1.415L13.414 12l2.829-2.828-1.415-1.415L12 10.586z"/>
    </g>
</svg>
